src/assets/images/svg/languages/logo-html.svg

<svg width="30" height="34" viewBox="0 0 30 34" fill="none" xmlns="http://www.w3.org/2000/svg">
<g clip-path="url(#clip0_98_106)">
<path d="M2.51202 30.4385L0 0.0567627L30 0.117816L27.3438 30.4385L15.1132 33.9432L2.51202 30.4385Z" fill="#708AF4"/>
<path d="M15.1133 31.009V2.95026L27.4675 2.99096L25.2644 28.095L15.1133 31.009Z" fill="#A1B2F8"/>
<path d="M24.0702 9.95993L24.42 6.25122H5.41528L6.46528 17.6216H19.5813L19.067 22.4711L14.8665 23.5916L10.6043 22.3691L10.3779 19.4757H6.60948L7.12432 25.3849L14.8663 27.5244L22.6699 25.3849L23.7199 13.8518H9.94528L9.55407 9.95993H24.0702Z" fill="#EFFBFF"/>
</g>
<defs>
<clipPath id="clip0_98_106">
<rect width="30" height="34" fill="white"/>
</clipPath>
</defs>
</svg>

<svg xmlns="http://www.w3.org/2000/svg" width="30" height="34" fill="none"><g clip-path="url(#a)"><path fill="#708AF4" d="M2.512 30.439 0 .056l30 .06-2.656 30.322-12.23 3.504L2.511 30.44Z"/><path fill="#A1B2F8" d="M15.113 31.009V2.95l12.355.041-2.204 25.104-10.15 2.914Z"/><path fill="#EFFBFF" d="m24.07 9.96.35-3.709H5.415l1.05 11.37h13.116l-.514 4.85-4.2 1.12-4.263-1.222-.226-2.893H6.609l.515 5.909 7.742 2.14 7.804-2.14 1.05-11.533H9.945l-.39-3.892H24.07Z"/></g><defs><clipPath id="a"><path fill="#fff" d="M0 0h30v34H0z"/></clipPath></defs></svg>
